X:1
T:Soldier's Joy
C:Anonymous; arr. T. S. Macdonald
M:C|
K:D
%%staves { 1 2 }
V:1
FG | AFDF AFDF | A2 d2 d2 cB | AFDF AFDF | G2 E2 E2 FG |
AFDF AFDF | A2 d2 d2 e2 | fafd egec | d2 d2 d2 :|
|: de | f2 f2 fagf | edcd efge | f2 f2 fagf | edcB A2 de |
f2 f2 fagf | edcd efge | fafd egec | d2 d2 d2 :]
V:2 clef=treble
L:1/4
z | "0"D2 D2 | D D D z | D2 D2 | "1"A, A, A, z |
"0"D2 D2 | D D D z | D2 "1"A,2 | "0"D D D :|
|: z | "0"D D D z | "1"A,2 A,2 | "0"D D D z | "1"A,2 A,2 |
       "0"D D D z | "1"A,2 A,2 | "0"D2 "1"A,2 | "0"D D D :|



